logos/godot-icon.svg

<?xml version="1.0" encoding="UTF-8"?>
<svg width="256px" height="242px" viewBox="0 0 256 242" version="1.1" xmlns="http://www.w3.org/2000/svg" preserveAspectRatio="xMidYMid">
    <title>Godot</title>
    <g>
        <path d="M240.339684,202.858881 C240.339684,202.858881 239.966486,205.148585 239.748308,205.128216 L198.200018,201.119241 C194.894044,200.800015 192.326464,198.16353 192.094478,194.850652 L190.953027,178.490835 L158.810058,176.197679 L156.623707,191.024461 C156.136821,194.322415 153.256919,196.808469 149.92333,196.808469 L106.071427,196.808469 C102.739056,196.808469 99.8590821,194.322415 99.3721658,191.024461 L97.1845962,176.197679 L65.0416274,178.490835 L63.9001763,194.850652 C63.6682109,198.164647 61.1006111,200.801162 57.7946367,201.12046 L16.2260417,205.128216 C16.0113052,205.148788 15.8539914,202.856748 15.6392549,202.856748 L15.5830098,193.865448 L50.7879872,188.188245 L51.9409107,171.682231 C52.1740132,168.340621 54.8702255,165.638724 58.2140689,165.398717 L102.482227,162.240869 C102.649886,162.229396 102.81524,162.222493 102.980595,162.222493 C106.30728,162.222493 109.182584,164.709765 109.6695,168.007618 L111.919,183.263853 L144.077198,183.263853 L146.326698,168.007618 C146.812426,164.710781 149.691253,162.223609 153.022507,162.223609 C153.185567,162.223609 153.348627,162.229701 153.508245,162.240869 L197.782494,165.398717 C201.125221,165.638714 203.82255,168.340723 204.055653,171.682231 L205.207358,188.188245 L240.397106,193.890728 L240.339684,202.858881 Z" fill="#FFFFFF" transform="translate(127.990058, 183.675354) scale(-1, 1) rotate(-180.000000) translate(-127.990058, -183.675354) "></path>
        <path d="M101.962985,0 C90.2687715,2.60002454 78.7001962,6.21862129 67.8542285,11.6776974 C68.102268,21.2543427 68.7213577,30.4304699 69.9764411,39.751271 C65.7644533,42.4498184 61.3378914,44.7658939 57.403525,47.9245802 C53.4062635,50.9997364 49.3231115,53.9427826 45.7039818,57.5392975 C38.4731082,52.7566096 30.8208532,48.2618986 22.9368916,44.2940288 C14.438447,53.4404599 6.49128575,63.3125443 2.30842229e-14,74.358771 C4.88373121,82.2594843 9.9824934,89.6644994 15.4877129,96.6918397 L15.640892,96.6918397 L15.640892,164.489798 C15.7649079,164.49081 15.8898223,164.496476 16.0126885,164.507646 L57.5767147,168.514121 C59.7539034,168.724263 61.4599123,170.477116 61.6114391,172.65895 L62.8934014,191.006635 L99.1494215,193.594317 L101.646415,176.659866 C101.970226,174.464326 103.854442,172.837812 106.075262,172.837812 L149.926657,172.837812 C152.146334,172.837812 154.030216,174.464326 154.353981,176.659866 L156.850974,193.594317 L193.108517,191.006635 L194.388957,172.65895 C194.541679,170.477192 196.246493,168.725421 198.423681,168.514121 L239.970956,164.507646 C240.093822,164.496171 240.217252,164.491016 240.34126,164.489798 L240.34126,159.079378 L240.359108,159.073431 L240.359108,96.6916037 L240.512287,96.6916037 C246.01842,89.6639588 251.113832,82.2584868 256,74.3585349 C249.510922,63.3115468 241.56003,53.4394624 233.061586,44.2937928 C225.179908,48.2612057 217.523618,52.7556882 210.292972,57.5390615 C206.67468,53.9425465 202.599371,50.9995765 198.596475,47.9243442 C194.663479,44.7653533 190.230521,42.4492778 186.026605,39.7510349 C187.278262,30.4302339 187.898151,21.2541067 188.147371,11.6774614 C177.300641,6.21838525 165.732828,2.59956007 154.032523,0 C149.361234,7.85121964 145.089397,16.3519486 141.368995,24.6638401 C136.957205,23.9266204 132.524856,23.6533316 128.087177,23.6004875 L128.087177,23.5945384 C128.05621,23.5945384 128.027313,23.6004875 128.000921,23.6004875 C127.973403,23.6004875 127.94376,23.5945384 127.91615,23.5945384 L127.91615,23.6004875 C123.469867,23.6532805 119.040792,23.9266128 114.628241,24.6638401 C110.910047,16.35271 106.641485,7.85121964 101.96319,0 L101.962985,0 Z M15.5698724,173.456529 C15.587132,177.473283 15.6382833,181.873499 15.6382833,182.749918 C15.6382833,222.221504 65.7106529,241.193571 127.920394,241.412105 L128.073573,241.412105 C190.284076,241.193922 240.340456,222.221504 240.340456,182.749918 C240.340456,181.857661 240.394952,177.475567 240.413333,173.456529 L203.053985,177.059973 L201.766083,195.505884 C201.611062,197.728988 199.842912,199.498501 197.619808,199.658099 L153.345813,202.816862 C153.237871,202.824979 153.129891,202.828755 153.023099,202.828755 C150.822915,202.828755 148.925175,201.213053 148.600192,199.003732 L146.061547,181.786786 L109.936495,181.786786 L107.39785,199.003732 C107.0568,201.321026 104.985604,202.987973 102.652244,202.816877 L58.3782488,199.658114 C56.1551453,199.498509 54.3870028,197.729003 54.2319734,195.5059 L52.9455185,177.059988 L15.5698724,173.456529 L15.5698724,173.456529 Z" fill="#478CBF" transform="translate(128.000000, 120.706052) rotate(-360.000000) translate(-128.000000, -120.706052) "></path>
        <path d="M69.0786259,99.177945 C55.2508547,99.177945 44.0340652,110.383313 44.0340652,124.213368 C44.0340652,138.052561 55.2500933,149.263259 69.0786259,149.263259 C82.91325,149.263259 94.1269937,138.052561 94.1269937,124.213368 C94.1269937,110.383313 82.91325,99.177945 69.0786259,99.177945 L69.0786259,99.177945 Z M186.919257,99.177945 C173.082349,99.177945 161.869367,110.383313 161.869367,124.213368 C161.869367,138.052561 173.082349,149.263259 186.919257,149.263259 C200.746267,149.263259 211.960772,138.052561 211.960772,124.213368 C211.960772,110.383313 200.746267,99.177945 186.919257,99.177945 Z M127.993612,113.828073 C123.540475,113.828073 119.931473,117.113387 119.931473,121.155421 L119.931473,144.214143 C119.931473,148.259604 123.540399,151.541491 127.993612,151.541491 C132.446824,151.541491 136.064888,148.259604 136.064888,144.214143 L136.064888,121.155421 C136.064888,117.113387 132.447052,113.828073 127.993612,113.828073 Z" fill="#FFFFFF" transform="translate(127.997419, 125.359718) rotate(-360.000000) translate(-127.997419, -125.359718) "></path>
        <path d="M71.4748812,109.07668 C62.2926624,109.07668 54.8495752,116.523879 54.8495752,125.703509 C54.8495752,134.883139 62.292967,142.322723 71.4748812,142.322723 C80.6616686,142.322723 88.10171,134.882986 88.10171,125.703509 C88.10171,116.524031 80.661364,109.07668 71.4748812,109.07668 Z M184.518433,109.07668 C175.338499,109.07668 167.900742,116.523879 167.900742,125.703509 C167.900742,134.883139 175.339032,142.322723 184.518433,142.322723 C193.707505,142.322723 201.143739,134.882986 201.143739,125.703509 C201.143739,116.524031 193.707201,109.07668 184.518433,109.07668 L184.518433,109.07668 Z" fill="#414042" transform="translate(127.996657, 125.699702) rotate(-360.000000) translate(-127.996657, -125.699702) "></path>
    </g>
</svg>

<svg preserveAspectRatio="xMidYMid" viewBox="0 0 256 242" xmlns="http://www.w3.org/2000/svg">
  <path fill="#FFF" d="M240.34 164.492s-.374-2.29-.592-2.27l-41.548 4.01a6.753 6.753 0 0 0-6.106 6.268l-1.141 16.36-32.143 2.293-2.186-14.827c-.487-3.298-3.367-5.784-6.7-5.784H106.07c-3.332 0-6.212 2.486-6.699 5.784l-2.187 14.827-32.143-2.293L63.9 172.5a6.753 6.753 0 0 0-6.105-6.27l-41.569-4.008c-.215-.02-.372 2.272-.587 2.272l-.056 8.991 35.205 5.677 1.153 16.506c.233 3.342 2.93 6.044 6.273 6.284l44.268 3.158c.168.011.333.018.499.018 3.326 0 6.202-2.487 6.689-5.785l2.249-15.256h32.158l2.25 15.256c.485 3.297 3.364 5.784 6.696 5.784.163 0 .326-.006.485-.017l44.274-3.158c3.343-.24 6.04-2.942 6.274-6.284l1.151-16.506 35.19-5.702-.057-8.968Z"/>
  <path fill="#478CBF" d="M101.963 0C90.269 2.6 78.7 6.219 67.854 11.678c.248 9.576.867 18.752 2.122 28.073-4.212 2.699-8.638 5.015-12.572 8.174-3.998 3.075-8.08 6.018-11.7 9.614-7.23-4.782-14.883-9.277-22.767-13.245C14.438 53.44 6.49 63.313 0 74.359c4.884 7.9 9.982 15.305 15.488 22.333h.153v67.798c.124 0 .249.006.372.018l41.564 4.006a4.475 4.475 0 0 1 4.034 4.145l1.282 18.348 36.256 2.587 2.497-16.934a4.476 4.476 0 0 1 4.43-3.822h43.85a4.475 4.475 0 0 1 4.428 3.822l2.497 16.934 36.258-2.587 1.28-18.348a4.477 4.477 0 0 1 4.035-4.145l41.547-4.006a4.45 4.45 0 0 1 .37-.018v-5.41l.018-.007V96.692h.153c5.506-7.028 10.602-14.434 15.488-22.333-6.49-11.047-14.44-20.92-22.938-30.065-7.882 3.967-15.538 8.462-22.769 13.245-3.618-3.596-7.694-6.54-11.697-9.615-3.933-3.159-8.365-5.475-12.57-8.173 1.252-9.32 1.872-18.497 2.121-28.074C177.301 6.218 165.733 2.6 154.033 0c-4.672 7.851-8.944 16.352-12.664 24.664-4.412-.737-8.844-1.01-13.282-1.064v-.005c-.03 0-.06.005-.086.005-.028 0-.057-.005-.085-.005v.005c-4.446.053-8.875.327-13.288 1.064C110.91 16.353 106.641 7.85 101.963 0ZM15.57 173.457c.017 4.016.068 8.416.068 9.293 0 39.472 50.073 58.444 112.282 58.662h.154c62.21-.218 112.266-19.19 112.266-58.662 0-.892.055-5.274.073-9.293l-37.359 3.603-1.288 18.446a4.476 4.476 0 0 1-4.146 4.152l-44.274 3.159a4.477 4.477 0 0 1-4.746-3.813l-2.538-17.217h-36.126l-2.538 17.217a4.473 4.473 0 0 1-4.746 3.813l-44.274-3.159a4.476 4.476 0 0 1-4.146-4.152l-1.286-18.446-37.376-3.603Z"/>
  <path fill="#FFF" d="M69.079 99.178c-13.828 0-25.045 11.205-25.045 25.035 0 13.84 11.216 25.05 25.045 25.05 13.834 0 25.048-11.21 25.048-25.05 0-13.83-11.214-25.035-25.048-25.035Zm117.84 0c-13.837 0-25.05 11.205-25.05 25.035 0 13.84 11.213 25.05 25.05 25.05 13.827 0 25.042-11.21 25.042-25.05 0-13.83-11.215-25.035-25.042-25.035Zm-58.925 14.65c-4.454 0-8.063 3.285-8.063 7.327v23.06c0 4.045 3.61 7.326 8.063 7.326 4.453 0 8.07-3.281 8.07-7.327v-23.059c0-4.042-3.617-7.327-8.07-7.327Z"/>
  <path fill="#414042" d="M71.475 109.077c-9.182 0-16.625 7.447-16.625 16.627s7.443 16.619 16.625 16.619c9.187 0 16.627-7.44 16.627-16.62 0-9.179-7.44-16.626-16.627-16.626Zm113.043 0c-9.18 0-16.617 7.447-16.617 16.627s7.438 16.619 16.617 16.619c9.19 0 16.626-7.44 16.626-16.62 0-9.179-7.437-16.626-16.626-16.626Z"/>
</svg>
